icon-svg/outdoor-motion.svg

<svg xmlns="http://www.w3.org/2000/svg" fill="#44739e" viewBox="0 0 24 24"><path d="M16.5 19.3a2.831 2.831 0 0 0 2.574-2.876L18.84 4.641a2.436 2.436 0 0 0-2.483-2.387 2.4 2.4 0 0 0-.268.021l-10.7 1.4a3.127 3.127 0 0 0-2.718 3.054L2.5 18.085a2.238 2.238 0 0 0 2.206 2.271 2 2 0 0 0 .235-.008zM3.6 9.658l-.026.04.047-.142c.008-.025.009-.057.018-.081a.17.17 0 0 1 .022-.037l.1-.311c.015-.045 1.539-4.505 5.186-4.891.223-.023.443-.029.658-.034a7.3 7.3 0 0 1 7.713 6.136l.053.219-.189-.157-.1-.107a4.53 4.53 0 0 0-1.2-.893c-.128-.1-.252-.161-.386-.251a12.774 12.774 0 0 0-7.547-1.514c-1.916.257-4.924.844-4.242 3.856A4.15 4.15 0 0 1 3.6 9.658m.254 2.371C3.054 8.8 6.215 8.138 8.263 7.9a12.223 12.223 0 0 1 9.089 2.848c.3 1.971-2.267 6.929-6.785 7.346-4.07.376-6.234-2.846-6.661-5.836a1.6 1.6 0 0 0-.05-.229ZM9.439 7.3a11.37 11.37 0 0 1 6.537 1.925 10.4 10.4 0 0 1 1.186.919 7.317 7.317 0 0 0-8.117-5.7c-2.712.186-4.507 3.223-4.977 4.324a6.39 6.39 0 0 1 3.1-1.336A13.8 13.8 0 0 1 9.439 7.3m11.945-.653a3.93 3.93 0 0 0-1.24-2.626c-.275-.222-.674-.464-1.049-.733h-.013l-1.153-.732a2.173 2.173 0 0 1 1.181 1.89v-.114l.3 12.156a3.147 3.147 0 0 1-2.9 3.216l-11.68.928 1.433.7a4.075 4.075 0 0 0 2.134.4l10.356-.883A3.125 3.125 0 0 0 21.5 17.7Z"/></svg>

<?xml version="1.0" encoding="UTF-8"?>
<svg width="24px" fill="#44739e" height="24px" viewBox="0 0 24 24" version="1.1" xmlns="http://www.w3.org/2000/svg" xmlns:xlink="http://www.w3.org/1999/xlink">
            <path d="m 16.5,19.3 a 2.831,2.831 0 0 0 2.574,-2.876 L 18.84,4.641 A 2.436,2.436 0 0 0 16.357,2.254 2.4,2.4 0 0 0 16.089,2.275 l -10.7,1.4 A 3.127,3.127 0 0 0 2.671,6.729 L 2.5,18.085 a 2.238,2.238 0 0 0 2.206,2.271 2.051,2.051 0 0 0 0.235,-0.008 z M 3.6,9.658 3.574,9.698 3.621,9.556 C 3.629,9.531 3.63,9.499 3.639,9.475 A 0.167,0.167 0 0 1 3.661,9.438 l 0.1,-0.311 C 3.776,9.082 5.3,4.622 8.947,4.236 9.17,4.213 9.39,4.207 9.605,4.202 a 7.3,7.3 0 0 1 7.713,6.136 l 0.053,0.219 -0.189,-0.157 -0.1,-0.107 A 4.529,4.529 0 0 0 15.882,9.4 C 15.754,9.3 15.63,9.239 15.496,9.149 A 12.774,12.774 0 0 0 7.949,7.635 C 6.033,7.892 3.025,8.479 3.707,11.491 A 4.147,4.147 0 0 1 3.6,9.658 Z m 0.254,2.371 v 0 C 3.054,8.8 6.215,8.138 8.263,7.9 a 12.223,12.223 0 0 1 9.089,2.848 c 0.3,1.971 -2.267,6.929 -6.785,7.346 C 6.497,18.47 4.333,15.248 3.906,12.258 A 1.613,1.613 0 0 0 3.856,12.029 Z M 9.439,7.3 a 11.369,11.369 0 0 1 6.537,1.925 10.435,10.435 0 0 1 1.186,0.919 7.317,7.317 0 0 0 -8.117,-5.7 C 6.333,4.63 4.538,7.667 4.068,8.768 A 6.39,6.39 0 0 1 7.168,7.432 13.8,13.8 0 0 1 9.439,7.3 Z M 21.384,6.647 A 3.93,3.93 0 0 0 20.144,4.021 C 19.869,3.799 19.47,3.557 19.095,3.288 H 19.082 L 17.929,2.556 a 2.173,2.173 0 0 1 1.181,1.89 V 4.332 l 0.3,12.156 a 3.147,3.147 0 0 1 -2.9,3.216 l -11.68,0.928 1.433,0.7 a 4.075,4.075 0 0 0 2.134,0.4 L 18.753,20.849 A 3.125,3.125 0 0 0 21.5,17.7 Z"/>

</svg>
